local/share/icons/dracula-icons-main/scalable/apps/gnupg.svg

<?xml version="1.0" encoding="UTF-8"?>
<svg xmlns="http://www.w3.org/2000/svg" xmlns:xlink="http://www.w3.org/1999/xlink" width="64" height="64" viewBox="0 0 64 64">
<defs>
<filter id="filter-remove-color" x="0%" y="0%" width="100%" height="100%">
<feColorMatrix color-interpolation-filters="sRGB" values="0 0 0 0 1 0 0 0 0 1 0 0 0 0 1 0 0 0 1 0" />
</filter>
<mask id="mask-0">
<g filter="url(#filter-remove-color)">
<rect x="-6.4" y="-6.4" width="76.8" height="76.8" fill="rgb(0%, 0%, 0%)" fill-opacity="0.15"/>
</g>
</mask>
<clipPath id="clip-0">
<rect x="0" y="0" width="17" height="17"/>
</clipPath>
<g id="source-13424" clip-path="url(#clip-0)">
<path fill-rule="nonzero" fill="rgb(0%, 0%, 0%)" fill-opacity="1" d="M 8.46875 3.175781 C 7.539062 3.175781 6.625 3.421875 5.824219 3.886719 L 4.878906 3.886719 C 3.46875 4.988281 2.644531 6.679688 2.644531 8.46875 C 2.644531 10.328125 3.519531 11.980469 4.875 13.046875 L 5.824219 13.046875 C 7.457031 13.996094 9.476562 13.996094 11.109375 13.046875 L 12.058594 13.046875 C 13.464844 11.945312 14.289062 10.253906 14.285156 8.46875 C 14.285156 6.605469 13.414062 4.953125 12.058594 3.886719 L 11.109375 3.886719 C 10.304688 3.421875 9.394531 3.175781 8.46875 3.175781 Z M 8.46875 3.175781 "/>
</g>
</defs>
<path fill-rule="nonzero" fill="rgb(25.882353%, 73.72549%, 36.862745%)" fill-opacity="1" d="M 8.378906 1.324219 C 10.953125 1.289062 13.347656 2.644531 14.644531 4.867188 C 15.941406 7.089844 15.941406 9.839844 14.644531 12.066406 C 13.347656 14.289062 10.953125 15.644531 8.378906 15.609375 C 4.472656 15.558594 1.328125 12.375 1.328125 8.464844 C 1.328125 4.558594 4.472656 1.375 8.378906 1.324219 Z M 8.378906 1.324219 "/>
<g mask="url(#mask-0)">
<use xlink:href="#source-13424"/>
</g>
<path fill-rule="nonzero" fill="rgb(100%, 100%, 100%)" fill-opacity="1" d="M 6.351562 7.9375 C 6.210938 7.9375 6.074219 7.992188 5.976562 8.089844 C 5.875 8.191406 5.820312 8.328125 5.820312 8.46875 L 5.820312 11.113281 C 5.820312 11.40625 6.058594 11.640625 6.351562 11.640625 L 10.582031 11.640625 C 10.875 11.640625 11.113281 11.40625 11.113281 11.113281 L 11.113281 8.46875 C 11.113281 8.328125 11.058594 8.191406 10.957031 8.089844 C 10.859375 7.992188 10.722656 7.9375 10.582031 7.9375 Z M 8.46875 8.730469 C 8.757812 8.730469 8.996094 8.96875 8.996094 9.261719 C 8.996094 9.449219 8.894531 9.625 8.730469 9.71875 L 8.730469 10.582031 C 8.730469 10.730469 8.613281 10.847656 8.464844 10.847656 C 8.320312 10.847656 8.203125 10.730469 8.203125 10.582031 L 8.203125 9.71875 C 8.039062 9.625 7.9375 9.449219 7.9375 9.261719 C 7.9375 8.96875 8.175781 8.730469 8.46875 8.730469 Z M 8.46875 8.730469 "/>
<path fill-rule="nonzero" fill="rgb(100%, 100%, 100%)" fill-opacity="1" d="M 8.46875 5.292969 C 7.585938 5.292969 6.878906 6 6.878906 6.878906 L 6.878906 10.054688 C 6.878906 10.933594 7.585938 11.640625 8.46875 11.640625 C 8.1875 11.644531 7.917969 11.53125 7.71875 11.332031 C 7.519531 11.132812 7.40625 10.863281 7.40625 10.582031 L 7.40625 6.878906 C 7.40625 6.292969 7.878906 5.820312 8.46875 5.820312 C 9.054688 5.820312 9.523438 6.292969 9.523438 6.878906 L 9.523438 10.585938 C 9.523438 11.171875 9.054688 11.644531 8.46875 11.644531 C 9.347656 11.644531 10.054688 10.933594 10.054688 10.054688 L 10.054688 6.878906 C 10.054688 6 9.347656 5.292969 8.46875 5.292969 Z M 8.46875 5.292969 "/>
</svg>

<svg width="64" height="64" version="1.1" viewBox="0 0 16.933 16.933" xmlns="http://www.w3.org/2000/svg">
 <path d="m8.3803 1.3234a7.1436 7.1436 0 1 1 0 14.286 7.1436 7.1436 0 0 1 0-14.286z" fill="#42bc5e"/>
 <path d="M8.467 3.175a5.26 5.26 0 0 0-2.643.712h-.947a5.809 5.809 0 0 0-2.231 4.58c0 1.86.873 3.514 2.23 4.58h.948a5.26 5.26 0 0 0 5.285 0h.948a5.809 5.809 0 0 0 2.23-4.58c0-1.86-.873-3.515-2.23-4.58h-.948a5.26 5.26 0 0 0-2.642-.712z" opacity=".15"/>
 <g fill="#fff" stroke-width=".5" paint-order="stroke fill markers">
  <path d="M6.35 7.937a.528.528 0 0 0-.53.53v2.645c0 .294.237.53.53.53h4.233c.293 0 .53-.236.53-.53V8.467a.528.528 0 0 0-.53-.53zm2.117.794a.53.53 0 0 1 .529.53.53.53 0 0 1-.265.457v.865a.264.264 0 1 1-.529 0v-.865a.53.53 0 0 1-.265-.458.53.53 0 0 1 .53-.529z"/>
  <path d="M8.467 5.292c-.88 0-1.588.708-1.588 1.587v3.175c0 .88.708 1.588 1.588 1.588a1.056 1.056 0 0 1-1.059-1.059V6.88c0-.586.472-1.058 1.059-1.058.586 0 1.058.472 1.058 1.058v3.704c0 .587-.472 1.059-1.058 1.059.88 0 1.587-.708 1.587-1.588V6.88c0-.88-.708-1.587-1.587-1.587z"/>
 </g>
</svg>
